skeleton/fonts.fa5/fa-pro/svgs/duotone/plug.svg

<svg xmlns="http://www.w3.org/2000/svg" viewBox="0 0 384 512"><defs><style>.fa-secondary{opacity:.4}</style></defs><path d="M96 0a32 32 0 0 0-32 32v96h64V32A32 32 0 0 0 96 0zm192 0a32 32 0 0 0-32 32v96h64V32a32 32 0 0 0-32-32z" class="fa-secondary"/><path d="M384 176v32a16 16 0 0 1-16 16h-16v32a160.07 160.07 0 0 1-128 156.8V512h-64v-99.2A160.07 160.07 0 0 1 32 256v-32H16a16 16 0 0 1-16-16v-32a16 16 0 0 1 16-16h352a16 16 0 0 1 16 16z" class="fa-primary"/></svg>

<svg xmlns="http://www.w3.org/2000/svg" viewBox="0 0 384 512"><!-- Font Awesome Pro 5.15.1 by @fontawesome - https://fontawesome.com License - https://fontawesome.com/license (Commercial License) --><defs><style>.fa-secondary{opacity:.4}</style></defs><path d="M288,0a32,32,0,0,0-32,32V160h64V32A32,32,0,0,0,288,0ZM96,0A32,32,0,0,0,64,32V160h64V32A32,32,0,0,0,96,0Z" class="fa-secondary"/><path d="M384,176v32a16,16,0,0,1-16,16H352v32A160.07,160.07,0,0,1,224,412.8V512H160V412.8A160.07,160.07,0,0,1,32,256V224H16A16,16,0,0,1,0,208V176a16,16,0,0,1,16-16H368A16,16,0,0,1,384,176Z" class="fa-primary"/></svg>
